X:1
T:Title
%%score ( 1 2 ) { ( 3 5 ) | 4 }
L:1/8
Q:1/4=95
M:3/4
K:F
V:1 treble nm="Grand Piano, Soprano"
V:2 treble 
V:3 bass nm="Choir Pad, Make a Start for Heaven Now"
V:5 bass 
V:4 bass 
V:1
 [CA]3 [CA] [B,G][A,F] | [B,F]>[B,E] [B,E]4 | [EG]3 [FA] [Ec][DB] | [DB]2 [CA]2 z2 | %4
w: By~R.~Frank~Lehman * * *||||
 [CA]3 [CA] [B,G][A,F] | [B,E]>[B,E] [CE]4 | [FG]3 [FG] [FA][F=B] | [Fd]2 [Ec]4 | %8
w: ||||
[M:4/4] [Fc]>[Fc] [Fc]>[Fc] [Fc]>[FA] [Fd]>[Fc] | c4 A2 z2 | [FA]>[FA] [FA]>[FA] [FA]>F [FB]>[FA] | %11
w: |||
 [FA]4 [EG]2 C2 | F2 E2 G2 F2 | [FB]4 [FA]2 F2 | G2 F2 B2 A2 | [Fd]4 [Fc]2 z2 | %16
w: |||||
 [Fc]>[Fc] [Fc]>[Fc] [Ec]>[Ec] [Ec]>[Ec] | [Fc]4 z2 [GB]2 | [FA]2 z2 [EG]4 | [CF]8 |] %20
w: ||||
V:2
 x6 | x6 | x6 | x6 | x6 | x6 | x6 | x6 |[M:4/4] x8 | F6 z2 | x8 | x8 | x8 | x8 | x8 | x8 | x8 | %17
 x8 | x8 | x8 |] %20
V:3
 F,,C, F,2 C,2 | G,,C, G,2 C,2 | z C C2 C2 | z C, F,2 C,2 | F,,C, F,2 C,2 | G,,G, G,2 G,2 | %6
 G,,=B, B,2[K:treble] CD | C4 B,2 |[M:4/4] A,>[K:bass]A, A,>A, A,>F, B,>A, | A,4 C2 z2 | %10
 C>C C>C C>A, D>C | C6 z2 | z8 | D4 C2 F,2 | G,2 F,2 B,2 A,2 | B,4 A,2 z2 | %16
 A,>A, A,>A, B,>B, B,>B, | C4 z2 D2 | C2 z2 B,4 | A,8 |] %20
V:4
 z6 | z6 | z6 | z6 | z6 | z6 | z G, G,2 G,2 | C,6 |[M:4/4] F,>F, F,>F, F,2 F,>F, | F,2 C,2 F,2 z2 | %10
 F,>F, F,>F, F,>F, F,>F, | F,2 F,2 C,2 C,2 | F,2 E,2 G,2 F,2 | F,4 F,2 z2 | z8 | G,4 F,2 z2 | %16
 F,>F, F,>F, G,>G, G,>G, | A,4 z2 B,2 | z4 C,4 | [F,,F,]8 |] %20
V:5
 x6 | x6 | C,6 | F,,6 | x6 | x6 | x4[K:treble] x2 | x6 |[M:4/4] x3/2[K:bass] x13/2 | x8 | x8 | x8 | %12
 x8 | x8 | x8 | x8 | x8 | x8 | x8 | x8 |] %20

